src/pos-icons/check-outline.svg

<svg height="24" viewBox="0 0 24 24" width="24" xmlns="http://www.w3.org/2000/svg"><path d="m19.78 2.2 4.22 4.22-15.56 15.58-8.44-8.45 4.22-4.22 4.22 4.22zm0 2.8-11.34 11.36-4.22-4.17-1.41 1.36 5.63 5.62 12.75-12.75z"/></svg>

<?xml version="1.0" encoding="UTF-8"?><!DOCTYPE svg PUBLIC "-//W3C//DTD SVG 1.1//EN" "http://www.w3.org/Graphics/SVG/1.1/DTD/svg11.dtd"><svg xmlns="http://www.w3.org/2000/svg" xmlns:xlink="http://www.w3.org/1999/xlink" version="1.1" id="mdi-check-outline" width="24" height="24" viewBox="0 0 24 24"><path d="M19.78,2.2L24,6.42L8.44,22L0,13.55L4.22,9.33L8.44,13.55L19.78,2.2M19.78,5L8.44,16.36L4.22,12.19L2.81,13.55L8.44,19.17L21.19,6.42L19.78,5Z" /></svg>
